imgs/block-spammers.svg

<svg width="501" height="507" viewBox="0 0 501 507" fill="none" xmlns="http://www.w3.org/2000/svg">
<path fill-rule="evenodd" clip-rule="evenodd" d="M206 32C193.85 32 184 41.8497 184 54V160.034H184.122V247.387C184.122 259.766 190.473 270.074 197.631 281.693C207.156 297.152 218.111 314.933 217.436 343H332C344.15 343 354 333.15 354 321V54C354 41.8497 344.15 32 332 32H206Z" fill="white"/>
<path d="M184.122 224.264V53.182C184.122 41.2478 193.796 31.5732 205.731 31.5732H208.123M353.69 278.218V53.1819C353.69 41.2478 344.015 31.5732 332.081 31.5732H270.984M217.945 31.5732L245.447 31.5732M255.269 31.5732H261.162" stroke="#0E0E11" stroke-width="3.92885" stroke-linecap="round"/>
<rect x="225.802" y="47.2887" width="62.8617" height="11.7866" rx="5.89328" stroke="#0E0E11" stroke-width="3.92885"/>
<rect x="300.451" y="47.2887" width="11.7866" height="11.7866" rx="5.89328" stroke="#0E0E11" stroke-width="3.92885"/>
<path d="M220.461 140.336C219.048 135.065 222.267 129.688 227.571 128.405C238.902 125.663 247.578 123.416 257.478 118.097C265.213 113.941 274.605 114.183 282.242 118.515C291.347 123.68 299.927 126.052 311.912 128.634C317.418 129.82 320.873 135.336 319.343 140.756C313.772 160.486 307.54 177.021 295.774 192.656C289.897 200.465 280.608 208.049 272.534 215.694C270.041 218.054 266.052 217.968 263.651 215.514C256.152 207.847 247.51 200.323 242.211 192.656C231.176 176.69 225.761 160.108 220.461 140.336Z" fill="#00C7BE"/>
<path d="M255.269 160.243L265.552 173.098C266.329 174.068 267.8 174.083 268.595 173.128L291.611 145.51" stroke="white" stroke-width="7.85771" stroke-linecap="round"/>
<path d="M295.454 343.304L284.734 368.155C279.475 380.347 270.253 390.406 258.562 396.701L250.899 400.827C238.498 407.504 227.68 416.769 219.175 427.995C215.198 433.245 210.939 438.867 207.407 443.53" stroke="#0E0E11" stroke-width="3.92885" stroke-linecap="round"/>
<path d="M216.665 353.581C223.516 296.202 184.122 278.218 184.122 247.387V179.731C184.122 168.853 175.303 160.034 164.425 160.034V160.034C153.546 160.034 144.727 168.853 144.727 179.731V230.259L132.194 346.978C131.43 354.085 128.643 360.824 124.161 366.392L86.9199 412.673" stroke="#0E0E11" stroke-width="3.92885" stroke-linecap="round"/>
<path d="M143.296 247.66H154.101M142.314 262.394H157.047" stroke="#0E0E11" stroke-width="3.92885" stroke-linecap="round" stroke-linejoin="round"/>
<path d="M220.947 453.781L91.6301 379.273L4 505L188 505L220.947 453.781Z" fill="#8280ED" stroke="#8280ED" stroke-width="3.92885" stroke-linecap="round"/>
<path d="M152.39 176.19L149.519 174.424C148.268 173.654 146.629 174.082 145.913 175.364C145.315 176.436 145.005 177.646 145.013 178.873L145.261 213.283C153.398 213.283 159.994 206.686 159.994 198.55V189.799C159.994 184.25 157.115 179.098 152.39 176.19Z" fill="white" stroke="#0E0E11" stroke-width="3.92885" stroke-linecap="round" stroke-linejoin="round"/>
<path d="M217.522 343.305H332.081C344.015 343.305 353.69 333.63 353.69 321.696V276.505" stroke="#0E0E11" stroke-width="3.92885" stroke-linecap="round"/>
<path d="M466.452 351.207L443.608 265.953C441.283 259.483 433.16 247.474 419.262 251.198C405.365 254.921 404.334 269.383 405.556 276.149L401.566 261.259C399.241 254.789 391.118 242.78 377.22 246.504C363.323 250.227 362.292 264.69 363.514 271.455L361.297 263.183C359.8 256.491 353 244.127 337.779 248.206C322.558 252.284 321.748 266.687 323.245 273.379L302.497 195.946C299.681 185.438 288.881 179.202 278.373 182.018C267.865 184.833 261.629 195.634 264.445 206.142L294.146 316.99C284.095 319.683 278.131 330.014 280.824 340.065L295.057 393.183C296.984 400.375 302.141 406.263 309.016 409.12L339.091 421.62C345.966 424.477 351.124 430.365 353.05 437.557L371.17 505L437.96 505L478.195 494.298L459.072 422.932C458.027 419.03 457.988 414.947 458.934 411.058C459.473 408.844 460.134 406.65 460.437 404.392L465.087 369.747C465.39 367.488 466.051 365.295 466.59 363.08C467.536 359.191 467.497 355.108 466.452 351.207Z" fill="white"/>
<path d="M309.662 374.895L294.146 316.99M294.146 316.99C284.095 319.683 278.131 330.014 280.824 340.065L295.057 393.183C296.984 400.375 302.141 406.263 309.016 409.12L339.091 421.62C345.966 424.477 351.124 430.365 353.05 437.557L371.17 505L437.96 505L478.195 494.298L459.072 422.932C458.027 419.03 457.988 414.947 458.934 411.058C459.473 408.844 460.134 406.65 460.437 404.392L465.087 369.747C465.39 367.488 466.051 365.295 466.59 363.08C467.536 359.191 467.497 355.108 466.452 351.207L443.608 265.953C441.283 259.483 433.16 247.474 419.262 251.198C405.365 254.921 404.334 269.383 405.556 276.149L401.566 261.259C399.241 254.789 391.118 242.78 377.22 246.504C363.323 250.227 362.292 264.69 363.514 271.455L361.297 263.183C359.8 256.491 353 244.127 337.779 248.206C322.558 252.284 321.748 266.687 323.245 273.379M294.146 316.99L264.445 206.142C261.629 195.634 267.865 184.833 278.373 182.018C288.881 179.202 299.681 185.438 302.497 195.946L323.245 273.379M323.245 273.379L332.642 308.448" stroke="#0E0E11" stroke-width="3.92885" stroke-linecap="round"/>
<path d="M466.452 351.207L443.608 265.953C441.283 259.483 433.16 247.474 419.262 251.198C405.365 254.921 404.334 269.383 405.556 276.149L401.566 261.259C399.241 254.789 391.118 242.78 377.22 246.504C363.323 250.227 362.292 264.69 363.514 271.455L361.297 263.183C359.8 256.491 353 244.127 337.779 248.206C322.558 252.284 321.748 266.687 323.245 273.379L302.497 195.946C299.681 185.438 288.881 179.202 278.373 182.018C267.865 184.833 261.629 195.634 264.445 206.142L294.146 316.99C284.095 319.683 278.131 330.014 280.824 340.065L295.057 393.183C299.824 410.974 324.359 415.497 339.091 421.62C345.966 424.477 351.124 430.365 353.05 437.557L371.17 505L437.96 505L478.195 494.298L459.072 422.932C458.027 419.03 457.988 414.947 458.934 411.058C463.372 392.813 471.395 369.653 466.452 351.207Z" fill="#FFD8D6"/>
<path d="M309.662 374.895L294.146 316.99M294.146 316.99C284.095 319.683 278.131 330.014 280.824 340.065L295.057 393.183C299.824 410.974 324.359 415.497 339.091 421.62C345.966 424.477 351.124 430.365 353.05 437.557L371.17 505L437.96 505L478.195 494.298L459.072 422.932C458.027 419.03 457.988 414.947 458.934 411.058C463.372 392.813 471.395 369.653 466.452 351.207L443.608 265.953C441.283 259.483 433.16 247.474 419.262 251.198C405.365 254.921 404.334 269.383 405.556 276.149L401.566 261.259C399.241 254.789 391.118 242.78 377.22 246.504C363.323 250.227 362.292 264.69 363.514 271.455L361.297 263.183C359.8 256.491 353 244.127 337.779 248.206C322.558 252.284 321.748 266.687 323.245 273.379M294.146 316.99L264.445 206.142C261.629 195.634 267.865 184.833 278.373 182.018C288.881 179.202 299.681 185.438 302.497 195.946L323.245 273.379M323.245 273.379L332.642 308.448" stroke="#0E0E11" stroke-width="3.92885" stroke-linecap="round"/>
<path d="M370.607 297.926L361.297 263.183C358.482 252.675 347.459 245.612 336.952 248.427C326.444 251.243 320.43 262.871 323.245 273.379L332.555 308.122" stroke="#0E0E11" stroke-width="3.92885" stroke-linecap="round"/>
<path d="M297.19 209.307L294.57 198.459C292.911 192.268 286.418 188.108 280.228 189.766C274.038 191.425 270.495 198.275 272.154 204.465L274.728 215.123C275.246 217.27 277.431 218.568 279.564 217.996L294.387 214.024C296.447 213.472 297.69 211.379 297.19 209.307Z" fill="white" stroke="#0E0E11" stroke-width="3.92885" stroke-linecap="round"/>
<path d="M412.206 300.966L401.566 261.259C398.751 250.751 387.728 243.688 377.22 246.504C366.713 249.319 360.698 260.947 363.514 271.455L372.38 304.544" stroke="#0E0E11" stroke-width="3.92885" stroke-linecap="round"/>
<path d="M448.041 282.497L443.608 265.953C440.793 255.445 429.77 248.382 419.262 251.197C408.755 254.013 402.74 265.641 405.556 276.149L409.989 292.693" stroke="#0E0E11" stroke-width="3.92885" stroke-linecap="round"/>
<path d="M478.455 435.712L346.1 471.177L355.163 505H497.875L478.455 435.712Z" fill="#8280ED" stroke="#8280ED" stroke-width="3.92885" stroke-linecap="round"/>
<path d="M60.7906 111.403C67.479 110.814 72.9513 97.8487 72.9513 93.7234C72.9513 97.8487 80.8558 110.814 86.3281 111.403C80.8558 111.993 74.1674 121.422 72.9513 129.083C72.3433 121.422 67.479 111.993 60.7906 111.403Z" fill="white" stroke="#0E0E11" stroke-width="3.92885" stroke-linecap="round" stroke-linejoin="round"/>
<path d="M90.2569 142.834C93.8583 142.506 96.805 135.304 96.805 133.012C96.805 135.304 101.061 142.506 104.008 142.834C101.061 143.161 97.4598 148.4 96.805 152.656C96.4776 148.4 93.8583 143.161 90.2569 142.834Z" fill="white" stroke="#0E0E11" stroke-width="3.92885" stroke-linecap="round" stroke-linejoin="round"/>
<path d="M409.995 181.406L407.287 182.76C403.273 182.432 400.727 177.596 403.463 174.018L403.667 173.751C405.348 171.553 408.476 171.097 410.714 172.725C413.804 174.973 413.413 179.696 409.995 181.406Z" fill="white"/>
<path d="M395.885 188.461L409.995 181.406C413.413 179.696 413.804 174.973 410.714 172.725V172.725C408.476 171.097 405.348 171.553 403.667 173.751L403.463 174.018C400.325 178.121 404.134 183.877 409.137 182.595L432.227 176.674" stroke="#0E0E11" stroke-width="3.92885" stroke-linecap="round" stroke-linejoin="round"/>
<path d="M369.312 21.6443L387.974 6.91107M359.49 12.8043L365.383 2M377.17 32.4486L388.957 28.5198" stroke="#0E0E11" stroke-width="3.92885" stroke-linecap="round" stroke-linejoin="round"/>
<path fill-rule="evenodd" clip-rule="evenodd" d="M38.527 11.5448C32.7407 11.5448 28.0501 16.2355 28.0501 22.0217C28.0501 22.7189 27.5154 23.3313 26.8182 23.3313H24.1212C18.335 23.3313 13.6443 28.022 13.6443 33.8082C13.6443 39.5945 18.335 44.2851 24.1212 44.2851H97.4598C103.246 44.2851 107.937 39.5945 107.937 33.8082C107.937 28.022 103.246 23.3313 97.4598 23.3313H76.4281C75.7309 23.3313 75.1963 22.7189 75.1963 22.0217C75.1963 16.2355 70.5056 11.5448 64.7194 11.5448H38.527Z" fill="white"/>
<path d="M30.0145 22.0217C30.0145 17.3204 33.8257 13.5092 38.527 13.5092V9.58037C31.6558 9.58037 26.0856 15.1506 26.0856 22.0217H30.0145ZM24.1212 25.2957H26.8182V21.3668H24.1212V25.2957ZM15.6087 33.8082C15.6087 29.1069 19.4199 25.2957 24.1212 25.2957V21.3668C17.25 21.3668 11.6799 26.937 11.6799 33.8082H15.6087ZM24.1212 42.3207C19.4199 42.3207 15.6087 38.5095 15.6087 33.8082H11.6799C11.6799 40.6794 17.25 46.2496 24.1212 46.2496V42.3207ZM97.4598 42.3207H24.1212V46.2496H97.4598V42.3207ZM105.972 33.8082C105.972 38.5095 102.161 42.3207 97.4598 42.3207V46.2496C104.331 46.2496 109.901 40.6794 109.901 33.8082H105.972ZM97.4598 25.2957C102.161 25.2957 105.972 29.1069 105.972 33.8082H109.901C109.901 26.937 104.331 21.3668 97.4598 21.3668V25.2957ZM76.4281 25.2957H97.4598V21.3668H76.4281V25.2957ZM64.7194 13.5092C69.4207 13.5092 73.2319 17.3204 73.2319 22.0217H77.1607C77.1607 15.1506 71.5905 9.58037 64.7194 9.58037V13.5092ZM38.527 13.5092H64.7194V9.58037H38.527V13.5092ZM76.4281 21.3668C76.6802 21.3668 76.8818 21.4832 76.9971 21.6086C77.1049 21.7259 77.1607 21.8713 77.1607 22.0217H73.2319C73.2319 23.6447 74.4934 25.2957 76.4281 25.2957V21.3668ZM26.0856 22.0217C26.0856 21.8713 26.1414 21.7259 26.2493 21.6086C26.3646 21.4832 26.5662 21.3668 26.8182 21.3668V25.2957C28.753 25.2957 30.0145 23.6447 30.0145 22.0217H26.0856Z" fill="#0E0E11"/>
<path fill-rule="evenodd" clip-rule="evenodd" d="M454.509 74.4348C448.722 74.4348 444.032 79.1255 444.032 84.9118C444.032 85.4397 443.621 85.8941 443.093 85.8941H421.441C415.474 85.8941 410.636 90.7314 410.636 96.6984C410.636 102.666 415.474 107.503 421.441 107.503H458.765C464.732 107.503 469.569 102.666 469.569 96.6984C469.569 96.0003 470.105 95.3887 470.804 95.3887H480.701C486.487 95.3887 491.178 90.698 491.178 84.9118C491.178 79.1255 486.487 74.4348 480.701 74.4348H454.509Z" fill="white"/>
<path d="M445.996 84.9118C445.996 80.2104 449.807 76.3992 454.509 76.3992V72.4704C447.637 72.4704 442.067 78.0406 442.067 84.9118H445.996ZM421.441 87.8585H443.093V83.9297H421.441V87.8585ZM412.601 96.6984C412.601 91.8163 416.559 87.8585 421.441 87.8585V83.9297C414.389 83.9297 408.672 89.6464 408.672 96.6984H412.601ZM421.441 105.538C416.559 105.538 412.601 101.581 412.601 96.6984H408.672C408.672 103.75 414.389 109.467 421.441 109.467V105.538ZM458.765 105.538H421.441V109.467H458.765V105.538ZM467.605 96.6984C467.605 101.581 463.647 105.538 458.765 105.538V109.467C465.817 109.467 471.534 103.75 471.534 96.6984H467.605ZM480.701 93.4243H470.804V97.3531H480.701V93.4243ZM489.214 84.9118C489.214 89.6131 485.402 93.4243 480.701 93.4243V97.3531C487.572 97.3531 493.142 91.7829 493.142 84.9118H489.214ZM480.701 76.3992C485.402 76.3992 489.214 80.2104 489.214 84.9118H493.142C493.142 78.0406 487.572 72.4704 480.701 72.4704V76.3992ZM454.509 76.3992H480.701V72.4704H454.509V76.3992ZM471.534 96.6984C471.534 96.8497 471.477 96.9956 471.369 97.113C471.254 97.2382 471.053 97.3531 470.804 97.3531V93.4243C468.872 93.4243 467.605 95.0697 467.605 96.6984H471.534ZM442.067 84.9118C442.067 84.4737 442.421 83.9297 443.093 83.9297V87.8585C444.821 87.8585 445.996 86.4057 445.996 84.9118H442.067Z" fill="#0E0E11"/>
<path d="M291.611 266.322L308.308 261.411M296.522 275.162L308.308 271.233" stroke="#0E0E11" stroke-width="3.92885" stroke-linecap="round" stroke-linejoin="round"/>
</svg>

<svg xmlns="http://www.w3.org/2000/svg" width="501" height="507" fill="none" xmlns:v="https://vecta.io/nano"><style><![CDATA[.B{stroke-width:3.929}.C{stroke:#0e0e11}.D{stroke-linecap:round}.E{fill:#fff}.F{stroke-linejoin:round}.G{fill-rule:evenodd}]]></style><path d="M206 32c-12.15 0-22 9.85-22 22v106.034h.122v87.353c0 12.379 6.351 22.687 13.509 34.306 9.525 15.459 20.48 33.24 19.805 61.307H332c12.15 0 22-9.85 22-22V54c0-12.15-9.85-22-22-22H206z" class="E G"/><g class="B C"><path d="M184.122 224.264V53.182c0-11.934 9.674-21.609 21.609-21.609h2.392M353.69 278.218V53.182c0-11.934-9.675-21.609-21.609-21.609h-61.097m-53.039 0h27.502m9.822 0h5.893" class="D"/><rect x="225.802" y="47.289" width="62.862" height="11.787" rx="5.893"/><rect x="300.451" y="47.289" width="11.787" height="11.787" rx="5.893"/></g><path d="M220.461 140.336c-1.413-5.271 1.806-10.648 7.11-11.931 11.331-2.742 20.007-4.989 29.907-10.308 7.735-4.156 17.127-3.914 24.764.418 9.105 5.165 17.685 7.537 29.67 10.119 5.506 1.186 8.961 6.702 7.431 12.122-5.571 19.73-11.803 36.265-23.569 51.9-5.877 7.809-15.166 15.393-23.24 23.038-2.493 2.36-6.482 2.274-8.883-.18-7.499-7.667-16.141-15.191-21.44-22.858-11.035-15.966-16.45-32.548-21.75-52.32z" fill="#00c7be"/><g class="D"><path d="M255.269 160.243l10.283 12.855c.777.97 2.248.985 3.043.03l23.016-27.618" stroke="#fff" stroke-width="7.858"/><g class="B C"><path d="M295.454 343.304l-10.72 24.851a58.93 58.93 0 0 1-26.172 28.546l-7.663 4.126c-12.401 6.677-23.219 15.942-31.724 27.168l-11.768 15.535m9.258-89.949c6.851-57.379-32.543-75.363-32.543-106.194v-67.656c0-10.878-8.819-19.697-19.697-19.697h0c-10.879 0-19.698 8.819-19.698 19.697v50.528l-12.533 116.719a37.32 37.32 0 0 1-8.033 19.414L86.92 412.673"/><path d="M143.296 247.66h10.805m-11.787 14.734h14.733" class="F"/></g></g><path d="M220.947 453.781L91.63 379.273 4 505h184l32.947-51.219z" fill="#8280ed" stroke="#8280ed" class="B"/><g class="C B"><path d="M152.39 176.19l-2.871-1.766a2.58 2.58 0 0 0-3.606.94 7.11 7.11 0 0 0-.9 3.509l.248 34.41c8.137 0 14.733-6.597 14.733-14.733v-8.751a15.98 15.98 0 0 0-7.604-13.609z" class="E F"/><path d="M217.522 343.305h114.559c11.934 0 21.609-9.675 21.609-21.609v-45.191" class="D"/></g><path d="M466.452 351.207l-22.844-85.254c-2.325-6.47-10.448-18.479-24.346-14.755s-14.928 18.185-13.706 24.951l-3.99-14.89c-2.325-6.47-10.448-18.479-24.346-14.755s-14.928 18.186-13.706 24.951l-2.217-8.272c-1.497-6.692-8.297-19.056-23.518-14.977s-16.031 18.481-14.534 25.173l-20.748-77.433a19.7 19.7 0 0 0-24.124-13.928 19.7 19.7 0 0 0-13.928 24.124l29.701 110.848c-10.051 2.693-16.015 13.024-13.322 23.075l14.233 53.118c1.927 7.192 7.084 13.08 13.959 15.937l30.075 12.5c6.875 2.857 12.033 8.745 13.959 15.937L371.17 505h66.79l40.235-10.702-19.123-71.366c-1.045-3.902-1.084-7.985-.138-11.874.539-2.214 1.2-4.408 1.503-6.666l4.65-34.645c.303-2.259.964-4.452 1.503-6.667a23.98 23.98 0 0 0-.138-11.873z" class="E"/><path d="M309.662 374.895l-15.516-57.905m0 0c-10.051 2.693-16.015 13.024-13.322 23.075l14.233 53.118c1.927 7.192 7.084 13.08 13.959 15.937l30.075 12.5c6.875 2.857 12.033 8.745 13.959 15.937L371.17 505h66.79l40.235-10.702-19.123-71.366c-1.045-3.902-1.084-7.985-.138-11.874.539-2.214 1.2-4.408 1.503-6.666l4.65-34.645c.303-2.259.964-4.452 1.503-6.667a23.98 23.98 0 0 0-.138-11.873l-22.844-85.254c-2.325-6.47-10.448-18.479-24.346-14.755s-14.928 18.185-13.706 24.951l-3.99-14.89c-2.325-6.47-10.448-18.479-24.346-14.755s-14.928 18.186-13.706 24.951l-2.217-8.272c-1.497-6.692-8.297-19.056-23.518-14.977s-16.031 18.481-14.534 25.173m-29.099 43.611l-29.701-110.848a19.7 19.7 0 0 1 13.928-24.124 19.7 19.7 0 0 1 24.124 13.928l20.748 77.433m0 0l9.397 35.069" class="B C D"/><path d="M466.452 351.207l-22.844-85.254c-2.325-6.47-10.448-18.479-24.346-14.755s-14.928 18.185-13.706 24.951l-3.99-14.89c-2.325-6.47-10.448-18.479-24.346-14.755s-14.928 18.186-13.706 24.951l-2.217-8.272c-1.497-6.692-8.297-19.056-23.518-14.977s-16.031 18.481-14.534 25.173l-20.748-77.433a19.7 19.7 0 0 0-24.124-13.928 19.7 19.7 0 0 0-13.928 24.124l29.701 110.848c-10.051 2.693-16.015 13.024-13.322 23.075l14.233 53.118c4.767 17.791 29.302 22.314 44.034 28.437 6.875 2.857 12.033 8.745 13.959 15.937L371.17 505h66.79l40.235-10.702-19.123-71.366c-1.045-3.902-1.084-7.985-.138-11.874 4.438-18.245 12.461-41.405 7.518-59.851z" fill="#ffd8d6"/><g class="B C"><g class="D"><path d="M309.662 374.895l-15.516-57.905m0 0c-10.051 2.693-16.015 13.024-13.322 23.075l14.233 53.118c4.767 17.791 29.302 22.314 44.034 28.437 6.875 2.857 12.033 8.745 13.959 15.937L371.17 505h66.79l40.235-10.702-19.123-71.366c-1.045-3.902-1.084-7.985-.138-11.874 4.438-18.245 12.461-41.405 7.518-59.851l-22.844-85.254c-2.325-6.47-10.448-18.479-24.346-14.755s-14.928 18.185-13.706 24.951l-3.99-14.89c-2.325-6.47-10.448-18.479-24.346-14.755s-14.928 18.186-13.706 24.951l-2.217-8.272c-1.497-6.692-8.297-19.056-23.518-14.977s-16.031 18.481-14.534 25.173m-29.099 43.611l-29.701-110.848a19.7 19.7 0 0 1 13.928-24.124 19.7 19.7 0 0 1 24.124 13.928l20.748 77.433m0 0l9.397 35.069"/><path d="M370.607 297.926l-9.31-34.743c-2.815-10.508-13.838-17.571-24.345-14.756s-16.522 14.444-13.707 24.952l9.31 34.743"/></g><path d="M297.19 209.307l-2.62-10.848c-1.659-6.191-8.152-10.351-14.342-8.693s-9.733 8.509-8.074 14.699l2.574 10.658a3.93 3.93 0 0 0 4.836 2.873l14.823-3.972a3.93 3.93 0 0 0 2.803-4.717z" class="E"/><g class="D"><path d="M412.206 300.966l-10.64-39.707c-2.815-10.508-13.838-17.571-24.346-14.755s-16.522 14.443-13.706 24.951l8.866 33.089"/><path d="M448.041 282.497l-4.433-16.544c-2.815-10.508-13.838-17.571-24.346-14.756s-16.522 14.444-13.706 24.952l4.433 16.544"/></g></g><path d="M478.455 435.712L346.1 471.177 355.163 505h142.712l-19.42-69.288z" fill="#8280ed" stroke="#8280ed" class="B"/><g class="E"><path d="M60.791 111.403c6.688-.589 12.161-13.554 12.161-17.68 0 4.125 7.904 17.091 13.377 17.68-5.472.59-12.161 10.019-13.377 17.68-.608-7.661-5.472-17.09-12.161-17.68zm29.466 31.431c3.601-.328 6.548-7.53 6.548-9.822 0 2.292 4.256 9.494 7.203 9.822-2.947.327-6.548 5.566-7.203 9.822-.327-4.256-2.947-9.495-6.548-9.822z" class="C F B"/><path d="M409.995 181.406l-2.708 1.354c-4.014-.328-6.56-5.164-3.824-8.742l.204-.267a5.1 5.1 0 0 1 7.047-1.026c3.09 2.248 2.699 6.971-.719 8.681z"/></g><path d="M395.885 188.461l14.11-7.055c3.418-1.71 3.809-6.433.719-8.681h0a5.1 5.1 0 0 0-7.047 1.026l-.204.267c-3.138 4.103.671 9.859 5.674 8.577l23.09-5.921m-62.915-155.03l18.662-14.733m-28.484 5.893L365.383 2m11.787 30.449l11.787-3.929" class="B C D F"/><path d="M38.527 11.545A10.48 10.48 0 0 0 28.05 22.022c0 .697-.535 1.31-1.232 1.31h-2.697a10.48 10.48 0 0 0-10.477 10.477 10.48 10.48 0 0 0 10.477 10.477H97.46a10.48 10.48 0 0 0 10.477-10.477A10.48 10.48 0 0 0 97.46 23.331H76.428c-.697 0-1.232-.612-1.232-1.31a10.48 10.48 0 0 0-10.477-10.477H38.527z" class="E G"/><path d="M30.015 22.022c0-4.701 3.811-8.512 8.513-8.512V9.58c-6.871 0-12.441 5.57-12.441 12.441h3.929zm-5.893 3.274h2.697v-3.929h-2.697v3.929zm-8.513 8.513c0-4.701 3.811-8.512 8.513-8.512v-3.929c-6.871 0-12.441 5.57-12.441 12.441h3.929zm8.513 8.513c-4.701 0-8.513-3.811-8.513-8.513H11.68c0 6.871 5.57 12.441 12.441 12.441v-3.929zm73.339 0H24.121v3.929H97.46v-3.929zm8.512-8.513c0 4.701-3.811 8.513-8.512 8.513v3.929c6.871 0 12.441-5.57 12.441-12.441h-3.929zm-8.512-8.512c4.701 0 8.512 3.811 8.512 8.513h3.929c0-6.871-5.57-12.441-12.441-12.441v3.929zm-21.032 0H97.46v-3.929H76.428v3.929zM64.719 13.509c4.701 0 8.513 3.811 8.513 8.513h3.929c0-6.871-5.57-12.441-12.441-12.441v3.929zm-26.192 0h26.192V9.58H38.527v3.929zm37.901 7.858a.78.78 0 0 1 .569.242c.108.117.164.263.164.413h-3.929c0 1.623 1.261 3.274 3.196 3.274v-3.929zm-50.342.655c0-.15.056-.296.164-.413a.78.78 0 0 1 .569-.242v3.929c1.935 0 3.196-1.651 3.196-3.274h-3.929z" fill="#0e0e11"/><path d="M454.509 74.435a10.48 10.48 0 0 0-10.477 10.477c0 .528-.411.982-.939.982h-21.652c-5.967 0-10.805 4.837-10.805 10.804s4.838 10.805 10.805 10.805h37.324c5.967 0 10.804-4.837 10.804-10.805 0-.698.536-1.31 1.235-1.31h9.897a10.48 10.48 0 0 0 10.477-10.477 10.48 10.48 0 0 0-10.477-10.477h-26.192z" class="E G"/><path d="M445.996 84.912c0-4.701 3.811-8.513 8.513-8.513V72.47c-6.872 0-12.442 5.57-12.442 12.441h3.929zm-24.555 2.947h21.652V83.93h-21.652v3.929zm-8.84 8.84a8.84 8.84 0 0 1 8.84-8.84V83.93a12.77 12.77 0 0 0-12.769 12.769h3.929zm8.84 8.84a8.84 8.84 0 0 1-8.84-8.84h-3.929a12.77 12.77 0 0 0 12.769 12.769v-3.929zm37.324 0h-37.324v3.929h37.324v-3.929zm8.84-8.84a8.84 8.84 0 0 1-8.84 8.84v3.929a12.77 12.77 0 0 0 12.769-12.769h-3.929zm13.096-3.274h-9.897v3.929h9.897v-3.929zm8.513-8.513c0 4.701-3.812 8.513-8.513 8.513v3.929c6.871 0 12.441-5.57 12.441-12.441h-3.928zm-8.513-8.513c4.701 0 8.513 3.811 8.513 8.513h3.928c0-6.871-5.57-12.441-12.441-12.441v3.929zm-26.192 0h26.192V72.47h-26.192v3.929zm17.025 20.299a.61.61 0 0 1-.165.415c-.115.125-.316.24-.565.24v-3.929c-1.932 0-3.199 1.645-3.199 3.274h3.929zm-29.467-11.787a1 1 0 0 1 1.026-.982v3.929c1.728 0 2.903-1.453 2.903-2.947h-3.929z" fill="#0e0e11"/><path d="M291.611 266.322l16.697-4.911m-11.786 13.751l11.786-3.929" class="B C D F"/></svg>
